X:54
T: Graserin und Reiter
N: Q0149B
O: Osteuropa, Tschechoslowakei, Eger
N: Anhaengsel an der vierten Zeile.
R: Ballade, Verfuehrung, Verlassen des Elternhauses
M: 2/4
L: 1/16
K: C
G2 | G2E2E2E2 | E2D2D2
E2 | F2A2G2F2 | F4E2
G2 | C2GG(3G2G2G2 | G2E2c2
G2 | G2F2F2B2 | c2E2G2
G2 | F2AA(3A2A2A2 | G4E2
G2 | G2F2F2B2 | c4z2

@@@ Tune index: 1657
